X: 149
T: Rockin’ in a Weary Land
B: canberra pickers and fiddlers
B: old time tunes update
B: tunes
M:C|
L:1/8
Q: 1/4=100
K:D
V:1 
de|d2B2A2B2|d3e d2e2|e2e2 f3f|e2 d4d2|
A2B2d2B2|A4-A2 d2|e2e2(ef3)|ed3-d2B2|
A2B2d2B2|d3e d2e2|e2e2 f3f|e2 d4d2|
AAB2d2B2|A3B A2 B2|AAB2d2B2|d2 B2d2B2|
AAB2d2B2|A3A A2 B2|AAB2 d2B2|d2B2d2B2|
AAB2 d2B2|A3BA2 B2|AAB2 d2B2|d2B2d2B2|
AAB2 d2B2|A3AA2 B2|AAB2 d2B2|d2B2d2B2|
AAB2 d2B2|A3B A2d2|e4e3f|e2d6||
% abcbook-tune_id 67a7d9ec98009093864f4729
% abcbook-tune_composer_id 
% abcbook-link-0 https://www.youtube.com/watch?v=dZeaR24oK_o
% abcbook-link-title-0 Rockin&#39; In A Weary Land
% abcbook-boost 0
% abcbook-difficulty 0
% abcbook-tags old time tunes
% abcbook-tablature 
% abcbook-transpose 
% abcbook-tuning ADAE
% abcbook-lastupdated 1739220263426
% abcbook-src-url 
% abcbook-soundfonts 
% abcbook-repeats 1


